X:573
M:C
L:1/8
K:E
g|e>B e<g e>B e<g|f>eg>e c2 c<f|e>B e<g e>B e<g|e>cB>G E2 E>g|
e<Be<g e<Be<g|f<eg<e c2 c<f|e<a g>f e>cB>c|B<G F>G E2E||B|

